OBS Studio/Fluent Dark Grey/left.svg

<svg width="24" height="24" fill="none" viewBox="0 0 24 24" xmlns="http://www.w3.org/2000/svg"><path d="m15.707 4.2929c0.3905 0.39053 0.3905 1.0237 0 1.4142l-6.2929 6.2929 6.2929 6.2929c0.3905 0.3905 0.3905 1.0237 0 1.4142s-1.0237 0.3905-1.4142 0l-7-7c-0.39052-0.3905-0.39052-1.0237 0-1.4142l7-7c0.3905-0.39052 1.0237-0.39052 1.4142 0z" fill="#fff"/></svg>

<svg width="24" height="24" viewBox="0 0 24 24" fill="none" xmlns="http://www.w3.org/2000/svg">
<path d="M15.7071 4.29289C16.0976 4.68342 16.0976 5.31658 15.7071 5.70711L9.41421 12L15.7071 18.2929C16.0976 18.6834 16.0976 19.3166 15.7071 19.7071C15.3166 20.0976 14.6834 20.0976 14.2929 19.7071L7.29289 12.7071C6.90237 12.3166 6.90237 11.6834 7.29289 11.2929L14.2929 4.29289C14.6834 3.90237 15.3166 3.90237 15.7071 4.29289Z" fill="white"/>
</svg>
